X:1
T:Sovereign Summons, 10.10.10.10.10.10
T:Sovereign Summons, 10.10.10.10.10.10
T:Harmonia Sacra
T:Public Domain Courtesy of the Cyber Hymnal™
C:Harmonia Sacra
Z:Public Domain
Z:Courtesy of the Cyber Hymnal™
%%score ( 1 2 ) ( 3 4 )
L:1/8
Q:1/4=150
M:4/4
K:Eb
V:1 treble 
V:2 treble 
V:3 bass 
V:4 bass 
V:1
 E4 [EG]2 [GB]2 | [Be]6 [GB]2 | [FA]2 [EG]2 [DF]2 E2 | [FB]8 | [GB]4 [Ge]2 [Ge]2 | [Ac]4 [Ae]4 | %6
 ([Ac][GB]) [FA]2 [EG]2 [DF]2 | E8 | [GB]4 [GB]2 [GB]2 | [GB]4 [EG]4 | [EB]2 [EB]2 [Fc]2 [Gd]2 | %11
 [Ge]8 | [EB]4 [Ec]2 [Ec]2 | [EB]4 [EB]4 | [EG]2 E2 ([FA][GB]) [Ac]2 | [GB]8 | [Ge]4 [GB]2 G2 | %17
 E4 [EG]4 | [Ee]2 [EB]2 [Ec]2 [Ec]2 | [DB]8 | [Ee]4 [Ge]2 [Ge]2 | ([Be]8- | e2 f2 d2) [GB]2 | %23
 ([Ae]3 [Gc] [Ff]2) [Ff]2 | [Gd]2 [GB]2 !fermata![Ge]4 |] %25
V:2
 E4 x4 | x8 | x6 E2 | x8 | x8 | x8 | x8 | E8 | x8 | x8 | x8 | x8 | x8 | x8 | x2 E2 x4 | x8 | %16
 x6 G2 | E4 x4 | x8 | x8 | x8 | x8 | B6 x2 | x8 | x8 |] %25
V:3
 [E,B,]4 [E,B,]2 [E,B,]2 | [E,B,]6 [E,G,]2 | [F,A,]2 [E,B,]2 [D,C]2 [C,E]2 | [B,,D]8 | %4
 [E,E]4 [E,B,]2 [E,B,]2 | [F,A,]4 [E,C]4 | B,2 [A,,C]2 [G,,B,]2 [B,,B,]2 | [E,B,]8 | %8
 (E3 C) [E,B,]2 [E,G,]2 | [E,G,]4 [B,,G,]4 | [E,E]2 [G,E]2 [A,C]2 B,2 | [E,B,]8 | %12
 [E,E]4 [C,E]2 [C,E]2 | [E,E]4 [E,B,]4 | (CD) [G,E]2 [F,F]2 [F,D]2 | [B,,B,]8 | %16
 [E,B,]4 [E,B,]2 [E,B,]2 | [E,B,]4 [E,B,]4 | [E,B,]2 [E,B,]2 G,2 E,2 | [B,,F,]8 | %20
 [E,B,]4 [E,B,]2 [E,B,]2 | G,2 E2 B,2 x2 | [E,E]2 B,G, [E,B,]2 [G,G]2 | E4 [F,D]2 [F,C]2 | %24
 [G,B,]2 B,2 !fermata![E,B,]4 |] %25
V:4
 x8 | x8 | x8 | x8 | x8 | x8 | (C,B,,) x6 | x8 | E,4 x4 | x8 | x6 B,2 | x8 | x8 | x8 | E,2 x6 | %15
 x8 | x8 | x8 | x4 G,2 E,2 | x8 | x8 | E,4 CD x2 | x2 B,,2 x4 | A,3 G, x4 | x2 B,2 x4 |] %25

